X: 33257
T: Pump Sergeant Gary Rafferty
R: reel
M: 4/4
K: Bminor
f=f^fg f=fec|edcd B4|cAce fede|gfed f2B2|
f=f^fg f=fec|edcd B4|GBcd Acde|fgfd B4:|
|:BFBd BGBd|cAce fedc|BFBd BGBd|cAec B4|
BFBd BGBd|cAce fedc|fgf=f ^f=fec|edcd B4:|

